!!!COM: Scarlatti, Domenico
!!!CDT: 1685///-1757///
!!!OTL: Sonata in F Major, K.205, L.523
!!!SCT: K. 205
!!!SCT: L. 523
**kern	**kern	**dynam
*staff2	*staff1	*staff1
*Icemba	*Icemba	*Icemba
*>[A,A,B,B]	*>[A,A,B,B]	*>[A,A,B,B]
*>norep[A,B]	*>norep[A,B]	*>norep[A,B]
*>A	*>A	*>A
*clefF4	*clefG2	*clefG2
*k[b-]	*k[b-]	*k[b-]
*M2/2	*M2/2	*M2/2
*MM216	*MM216	*MM216
2r	(4ff\	.
.	8ee\L	p
.	8dd\J	.
=1	=1	=1
1r	4cc'\)	.
.	4aa'\	.
.	(4ff\	.
.	8ee\L	p
.	8dd\J	.
=2	=2	=2
1r	4cc'\)	.
.	4aa'\	.
.	(4ff\	.
.	8ee\L	p
.	8dd\J	.
=3	=3	=3
1r	4cc'\)	<
.	(8b-\L	.
.	8a\J	.
.	8b-\L	.
.	8cc\	.
.	8dd\	.
.	8ee\J	.
=4	=4	=4
2r	8ff\L	.
.	8gg\	.
.	8aa\	.
.	8bb-\J	.
*clefG2	*	*
(4f/	[2ccc^\)	f
8e/L	.	.
8d/J	.	.
=5	=5	=5
4c'/)	4ccc\]	.
4a'/	4cc'\	.
(4f/	[2ccc\	.
8e/L	.	.
8d/J	.	.
=6	=6	=6
4c'/)	4ccc\]	.
4a'/	4cc'\	.
(4f/	[2ccc\	.
8e/L	.	.
8d/J	.	.
=7	=7	=7
4c'/)	2.ccc\]	.
(8B-/L	.	.
8A/J	.	.
8B-/L	.	.
8c/	.	.
8d/	[4bb-\	.
8e'/J	.	.
=8	=8	=8
8f/L	4bb-\]	.
8g/	.	.
8a/	2aa\	.
8b-/J	.	.
[2cc\)	.	.
.	8gg\L	mf
.	8ff\J	.
=9	=9	=9
4cc\]	(8ff\L	.
.	8ee\)	.
(4b-/	(8ee\	.
.	8dd\J)	.
4a/	(8dd\L	.
.	8cc\)	.
4g/	(8cc\	.
.	8b-\J)	.
=10	=10	=10
.	ccq/	.
2f/)	4b-/	.
.	4a/	.
4e'/	8cc\L	p
.	8ee\	<
4c'/	8gg\	.
.	8bb-\J	.
=11	=11	=11
2f/	(4bb-\	>
.	4aa\)	.
(8c/L	(4gg\	<
8e/	.	.
8g/	8ff\L	.
8b-/J)	8ee\J)	.
=12	=12	=12
(4b-/	(4ee\	>
4a/)	4ff\)	.
(8c/L	(4gg\	<
8e/	.	.
8g/	8ff\L	.
8b-/J)	8ee\J)	.
=13	=13	=13
(4b-/	(4ee\	>
4a/)	4ff\)	.
4r	(8gg#\L	p
.	8aa\)	.
4f'/ 4a'/	(8aa\	.
.	8ggn\J)	.
=14	=14	=14
4f'/ 4a'/	(8gg\L	.
.	8ff\)	.
4f'/ 4a'/	(8ff\	.
.	8ee\J)	.
4f'/ 4a'/	(8ee\L	.
.	8dd\)	.
4f'/ 4a'/	(8dd\	.
.	8cc\J)	.
=15	=15	=15
.	(ddq/	.
2.f/ 2.g/	(4cc\)	mf
.	4b-\)	.
.	(8ff#\L	p
.	8gg\)	.
4e'/ 4g'/	(8gg\	.
.	8ffn\J)	.
=16	=16	=16
4e'/ 4g'/	(8ff\L	.
.	8ee\)	.
4e'/ 4g'/	(8ee\	.
.	8dd\J)	.
4e'/ 4g'/	(8dd\L	.
.	8cc\)	.
4e'/ 4g'/	8cc\	.
.	8bn\J	.
=17	=17	=17
.	(ccq/	.
2.e/ 2.f/	4bn/)	f
.	4a/	.
.	(8ee\L	p
.	8ff\)	.
4d'/ 4f'/	(8ff\	.
.	8ee\J)	.
=18	=18	=18
4d'/ 4f'/	(8ee\L	.
.	8dd\)	.
4d'/ 4f'/	(8dd\	.
.	8cc\J)	.
4c'/ 4f'/	8cc\L	.
.	8bn\	.
4c'/ 4f'/	(8b\	.
.	8a\J)	.
=19	=19	=19
*^	*	*
.	.	(bnq/	.
2r	2Bn/ 2f/	(4a/)	.
.	.	4g/)	.
*v	*v	*	*
*clefF4	*	*
*^	*	*
2d/	(4Bn\	(8g\L	p
.	.	8bn\	.
.	4G\)	8dd\	.
.	.	8ff\J)	.
=20	=20	=20	=20
2r	2c\	(4ff\	>
.	.	4ee\)	.
2d/	(4Bn\	(8g\L	<
.	.	8bn\	.
.	4G\)	8dd\	.
.	.	8ff\J)	.
*v	*v	*	*
=21	=21	=21
2c\	(4ff\	>
.	4ee\)	.
.	(eeq/	.
(8G\L	(4dd\)	<
8Bn\	.	.
8d\	8cc\L	.
8f\J)	8bn\J)	.
=22	=22	=22
(4f\	(4bn\	>
4e\)	4cc\)	.
.	(eeq/	.
(8G\L	(4dd\)	<
8Bn\	.	.
8d\	8cc\L	.
8f\J)	8b\J)	.
=23	=23	=23
(4f\	(4bn\	>
4e\)	4cc\)	.
4r	(8gg\L	mf
.	8ee\	.
4E'\ 4c'\	8cc\	.
.	8b\J)	.
=24	=24	=24
2F\ 2c\	(4bn\	>
.	4a\)	.
4r	(8aa\L	.
.	8ff\	.
4F#'\ 4c'\ 4d'\	8dd\	.
.	8cc\J)	.
=25	=25	=25
2G\ 2c\ 2d\	(4cc\	>
.	4bn\)	.
4r	(8gg\L	p
.	8ee\	.
4E'\ 4c'\	8cc\	.
.	8b\J)	.
=26	=26	=26
2F\ 2c\	(4bn\	.
.	4a\)	.
4r	(8aa\L	.
.	8ff\	.
4F#'\ 4c'\ 4d'\	8dd\	.
.	8cc\J)	.
=27	=27	=27
2G\ 2c\ 2d\	(4cc\	.
.	4bn\)	.
(4Bn\	(8g\L	<
.	8b\	.
4G\	8dd\	.
.	8ff\J)	.
=28	=28	=28
4c\	4ff\	>
4E-\	4ee-\	.
4F\	8f/L	<
.	8a-/	.
4G\)	8bn/	.
.	8dd/J	.
=29	=29	=29
*^	*	*
2e-/	(4A-\	(4dd\	>
.	4c\)	4cc\)	.
2r	(4Bn\	(8g\L	.
.	.	8bn\	.
.	4G\	8dd\	.
.	.	8ff\J)	.
*v	*v	*	*
=30	=30	=30
4c\	4ff\	>
4E-\	4ee-\	.
4F\	8f/L	<
.	8a-/	.
4G\)	8bn/	.
.	8dd/J	.
=31	=31	=31
*^	*	*
2e-/	4A-\ 4c\	(4dd\	>
.	4A-\ 4c\	4cc\)	.
2r	4A-\ 4c\	8r	.
.	.	8cc'\L	p
.	4A-\ 4c\	8cc'\	.
.	.	8cc'\J	.
*v	*v	*	*
=32	=32	=32
4G\ 4B-\ 4c\ 4en\	(8dd-\L	<
.	8b-\)	.
4G\ 4B-\ 4c\ 4e\	(8b-\	.
.	8a-\J)	.
4G\ 4c\ 4e\	(8a-\L	.
.	8g\)	.
4G\ 4c\ 4e\	(8g\	.
.	8ee\J)	.
=33	=33	=33
4A-\ 4c\ 4f\	2ff\	f
4A-\ 4c\ 4f\	.	.
4A-\ 4c\ 4f\	8r	.
.	8ff'\L	p
4A-\ 4c\ 4f\	8ff'\	.
.	8ff'\J	.
=34	=34	=34
4e\ 4g\	(8gg\L	<
.	8dd-\)	.
4e\ 4g\	(8dd-\	.
.	8cc\J)	.
4e\ 4g\	(8cc\L	.
.	8b-\)	.
4e\ 4g\	(8b-\	.
.	8gg\J)	.
=35	=35	=35
.	(ggq/	.
4F\ 4c\ 4f\	2aa-\)	f
4F\ 4c\ 4f\	.	.
4F\ 4c\ 4f\	8r	.
.	8aa-'\L	p
4F\ 4c\ 4f\	8aa-'\	.
.	8aa-'\J	.
*clefG2	*	*
=36	=36	=36
4d-/ 4f/ 4b-/	(8aa-\L	<
.	8gg\	.
4d-/ 4f/ 4b-/	8bb-\	.
.	8aa-\J	.
4d-/ 4f/ 4b-/	8gg\L	.
.	8ff\	.
4d-/ 4f/ 4b-/	8ee\	.
.	8ff\J)	.
=37	=37	=37
4c/ 4g/ 4cc/	(8ff\L	.
.	8ee\	.
4c/ 4g/ 4cc/	8bb-\	.
.	8aa-\J	.
4d-/ 4f/ 4b-/	8gg\L	.
.	8ff\	.
4d-/ 4f/ 4bn/	8ee\	.
.	8ff\J)	.
=38	=38	=38
4c/ 4g/ 4cc/	(8ff\L	.
.	8ee\	.
4c/ 4g/	8bb-\	.
.	8aa-\J	.
4d-/ 4f/ 4b-/	8gg\L	.
.	8ff\	.
4d-/ 4f/ 4bn/	8ee\	.
.	8ff\J	.
*clefF4	*	*
=39	=39	=39
*k[b-e-a-d-]	*k[b-e-a-d-]	*k[b-e-a-d-]
*M12/8	*M12/8	*M12/8
*MM190	*MM190	*MM190
4c\	4cc\)	f
8r	(8ccc\	mf
4r	8bb-\L	.
.	8aa-\	.
8r	8gg\J	.
2.r	8aa-\L	.
.	8bb-\	.
.	8ccc\J	.
.	8bb-\L	.
.	8aa-\	.
.	8gg\J	.
=40	=40	=40
1.r	8ff\L	.
.	8gg\	.
.	8aa-\J	.
.	8gg\L	.
.	8ff\	.
.	8ee-\J	.
.	8dd-\L	.
.	8ee-\	.
.	8ff\J	.
.	8ee-\L	.
.	8dd-\	.
.	8cc\J	.
=41	=41	=41
1.r	8b-\L	.
.	8cc\	.
.	8dd-\J	.
.	8cc\L	.
.	8b-\	.
.	8a-\J	.
.	8g/L	.
.	8a-/	.
.	8b-/J	.
.	8a-/L	.
.	8g/	.
.	8f/J	.
=42	=42	=42
4r	4.en/)	.
(8c\	.	.
8B-\L	4.e/	.
8A-\	.	.
8G\J	.	.
8A-\L	4.f/	.
8B-\	.	.
8c\J	.	.
8B-\L	4.g/	.
8A-\	.	.
8G\J	.	.
=43	=43	=43
8F\L	4.a-/	.
8G\	.	.
8A-\J	.	.
8G\L	4.g/	.
8F\	.	.
8E-\J	.	.
8D-\L	4.f/	.
8E-\	.	.
8F\J	.	.
8E-\L	4.e-/	.
8D-\	.	.
8C\J	.	.
=44	=44	=44
8BB-/L	4.d-/	.
8C/	.	.
8D-/J	.	.
8C/L	4.c/	.
8BB-/	.	.
8AA-/J	.	.
8GG/L	4.B-/	.
8AA-/	.	.
8BB-/J	.	.
8AA-/L	4.A-/	.
8GG/	.	.
8FF/J	.	.
=45	=45	=45
4.CC/)	[4.G/	.
4.CC/	4G/]	.
.	8G/	.
4.CC/	8A-/L	.
.	8F/	.
.	8c/J	.
4.CC/	8Bn/L	.
.	8G/	.
.	8B/J	.
=46	=46	=46
4.CC/	(4Bn/ 4f/	>
.	8c/) 8en/	.
4.CC/	4r	.
.	8G/	p
4.CC/	8A-/L	.
.	8F/	.
.	8c/J	.
4.CC/	8B/L	.
.	8G/	.
.	8B/ 8f/J	.
=47	=47	=47
4.CC/	(4Bn/ 4f/	>
.	8c/) 8en/	.
(4.A-\	4r	.
.	(8c/	mf
4.B-\	8d-/L	.
.	8B-/	.
.	8f/J	.
4.G\	8e/L	.
.	8c/	.
.	8e/J)	.
=48	=48	=48
4.F\	4en/ 4b-/	>
.	8f/ 8a-/	.
4.A-\	4r	.
.	8c/	p
4.B-\	8d-/L	.
.	8B-/	.
.	8f/J	.
4.G\	8e/L	.
.	8c/	.
.	8e/ 8b-/J	.
=49	=49	=49
4.F\)	4en/ 4b-/	>
.	8f/ 8an/	.
(4.d-\	4r	.
.	8f/	mf
4.e-\	8g/L	.
.	8e-/	.
.	8b-/J	.
4.c\	8a/L	.
.	8f/	.
.	8a/J	.
=50	=50	=50
4.B-\	4an/ 4ee-/	>
.	8b-/ 8dd-/	.
4.d-\	4r	.
.	8f/	p
4.e-\	8g-/L	.
.	8e-/	.
.	8b-/J	.
4.c\	8a/L	.
.	8f/	.
.	8ee-/J	.
=51	=51	=51
4.B-\)	8ee-\L	mf
.	8dd-\	.
.	8cc\J	.
(4.d-\	8cc\L	.
.	8b-\	.
.	8a-\J	.
4.E-\	8a-/L	.
.	8g/	.
.	8f/J	.
4.G\	8f/L	.
.	8e-/	.
.	8d-/J	.
=52	=52	=52
4.A-\)	4d-/	>
.	8c/	.
*clefG2	*	*
(4.a-/ 4.cc/	8ee-'\L	p
.	8ee-'\	.
.	8ee-'\J	.
4.g/ 4.b-/	8ee-'\L	.
.	8ee-'\	.
.	8ee-'\J	.
4.a-/ 4.cc/	8ee-'\L	.
.	8ee-'\	.
.	8ee-'\J	.
=53	=53	=53
4.g/) 4.b-/	8ee-'\L	.
.	8ee-'\	.
.	8ee-'\J	<
(4.g/ 4.b-/	8een'\L	.
.	8ee'\	.
.	8ee'\J	.
4.a-/) 4.cc/	8ff'\L	.
.	8ff'\	.
.	8ff'\J	.
(4.en/ 4.g/ 4.cc/	8gg'\L	.
.	8gg'\	.
.	8gg'\J	.
=54	=54	=54
4.f/) 4.a-/ 4.cc/	8aa-\L	f
.	8gg\	.
.	8ff\J	.
(4.g/ 4.bn/	8ff\L	.
.	8ee-\	.
.	8ddn\J	.
2.c/)	8ee-\L	.
.	8dd\	.
.	8cc\J	.
.	8gg\L	.
.	8ee-\	.
.	8cc\J	.
*clefF4	*	*
=55	=55	=55
*^	*^	*
.	.	2.r	(dd-q/	.
*	*	*v	*v	*
(4.G/	2.G\	(8cc\L)	.
*	*	*^	*
.	.	.	8bn\)	.
.	.	.	8b'\J	.
2.g/	.	.	8ddn'\L	f
.	.	.	8dd'\	.
.	.	.	8dd'\J	.
.	2.A-\	2.ee-/	8cc'\L	.
.	.	.	8cc'\	.
.	.	.	8cc'\J	.
4.f/	.	.	8cc'\L	.
.	.	.	8cc'\	.
.	.	.	8cc'\J	.
=56	=56	=56	=56	=56
4.e-/	(2.G\)	4.ddn/	8cc\L	.
.	.	.	8bn\	.
.	.	.	8b'\J	.
2.g/	.	4.r	8dd'\L	.
.	.	.	8dd'\	.
.	.	.	8dd'\J	.
.	2.A-\	2.ee-/	8dd\L	.
.	.	.	8cc\	.
.	.	.	8cc'\J	.
4.f/	.	.	8cc'\L	.
.	.	.	8cc'\	.
.	.	.	8cc'\J	.
=57	=57	=57	=57	=57
4.e-/	2.G\)	4.ddn/	8cc\L	.
.	.	.	8bn\	.
.	.	.	8b'\J	.
2.g/	.	8gg'/L	4.b\	f
.	.	8gg'/	.	.
.	.	8gg'/J	.	.
.	4.G\	8aa-'/L	2.r	.
.	.	8aa-'/	.	.
.	.	8aa-'/J	.	.
([4.f/	4.G\	8aan'/L	.	.
.	.	8aa'/	.	.
.	.	8aa'/J	.	.
=58	=58	=58	=58	=58
4.f/]	2.G\	8bbn/L	4.ddn\	.
.	.	8bb/	.	.
.	.	8bb/J	.	.
4.e-/)	.	8ccc'/L	4.ee-\	.
.	.	8ccc'/	.	.
.	.	8ccc/J	.	.
.	.	2.r	bb-q/	.
*	*	*v	*v	*
2.r	4.F\ 4.f\	8aa-\L	.
*	*	*^	*
.	.	.	8gg\	.
.	.	.	8ff\J	.
.	4.G\ 4.dn\ 4.f\	.	8ff\L	.
.	.	.	8ee-\	.
.	.	.	8dd\J	.
*	*	*v	*v	*
=59	=59	=59	=59
(4.c\	2.r	8cc\L	>
.	.	8ee-\	.
.	.	8gg\J	.
4.C/)	.	(8gg\L	p
.	.	8ee-\	.
.	.	8cc\J)	.
.	.	(dd-q/	.
4.G/	(2.G\	(8cc\L)	.
.	.	8bn\)	.
.	.	8b'\J	.
[4.g/	.	8ddn'\L	.
.	.	8dd'\	.
.	.	8dd'\J	.
=60	=60	=60	=60
*	*	*^	*
4.g/]	2.A-\	2.ee-/	8ddn\L	.
.	.	.	8cc\	.
.	.	.	8cc'\J	.
4.f/	.	.	8cc'\L	.
.	.	.	8cc'\	.
.	.	.	8cc'\J	.
4.e-/	(2.G\)	4.dd/	8cc\L	.
.	.	.	8bn'\	.
.	.	.	8b'\J	.
[4.g/	.	4.r	8dd'\L	.
.	.	.	8dd'\	.
.	.	.	8dd'\J	.
=61	=61	=61	=61	=61
4.g/]	2.A-\	2.ee-/	8ddn\L	.
.	.	.	8cc\	.
.	.	.	8cc'\J	.
4.f/	.	.	8cc\L	.
.	.	.	8cc'\	.
.	.	.	8cc'\J	.
4.e-/	2.G\)	4.dd/	8cc\L	.
.	.	.	8bn\	.
.	.	.	8b'\J	.
[4.g/	.	8gg'/L	4.b\	.
.	.	8gg/	.	.
.	.	8gg'/J	.	.
=62	=62	=62	=62	=62
4.g/]	4.G\	8aa-/L	2.cc\	.
.	.	8aa-'/	.	.
.	.	8aa-'/J	.	.
(2.f/	4.G\	8aan'/L	.	.
.	.	8aa'/	.	.
.	.	8aa'/J	.	.
.	2.G\	8bbn'/L	4.ddn\	.
.	.	8bb'/	.	.
.	.	8bb'/J	.	.
4.e-/)	.	8ccc'/L	4.ee-\	.
.	.	8ccc'/	.	.
.	.	8ccc'/J	.	.
*v	*v	*	*	*
*	*v	*v	*
=63	=63	=63
.	bb-q/	.
4.F\ 4.f\	(8aa-\L	mf
.	8gg\	.
.	8ff\J)	.
4.G\ 4.dn\ 4.f\	(8ff\L	.
.	8ee-\	.
.	8ddn\J	.
4.c\	4cc\)	.
.	(8g/	.
4.c\ 4.e-\	8g/L	.
.	8a-/	.
.	8f/J	.
=64	=64	=64
4.Bn\ 4.dn\	4g/)	.
.	(8ddn\	.
4.A-\ 4.c\ 4.d\	8dd\L	.
.	8ee-\	.
.	8cc\J	.
4.G\ 4.B\ 4.d\	4dd\)	.
.	(8g^/	.
4.c\ 4.e-\	8g/L	.
.	8a-/	.
.	8f/J	.
=65	=65	=65
4.Bn\ 4.dn\	4g/)	.
.	([8ddn\	.
4.A-\ 4.c\ 4.d\	8dd\L]	.
.	8ee-\	.
.	8cc\J	.
4.G\ 4.B\ 4.d\	4dd\)	.
.	([8aa-\	.
4.F\ 4.B\ 4.d\	8aa-\L]	.
.	8ff\	.
.	8dd\J	.
=66	=66	=66
*^	*	*
4.r	4E-\ 4c\	8gg\L	.
.	.	8ee-\	.
.	8F\ 8dn\	[8cc\J	.
4e-/	4.G\	8cc\L]	.
.	.	8ddn\	.
8d/	.	8bn\J	.
2.r	4.c'\	4cc\)	.
.	.	([8g/	p
.	4.c\ 4.e-\	8g/L]	.
.	.	8a-/	.
.	.	8f/J	.
*v	*v	*	*
=67	=67	=67
4.Bn\ 4.dn\	4g/)	.
.	([8ddn\	.
4.A-\ 4.c\ 4.d\	8dd\L]	.
.	8ee-\	.
.	8cc\J	.
4.G\ 4.B\ 4.d\	4dd\)	.
.	(8g^/	.
4.c\ 4.e-\	8g/L	.
.	8a-/	.
.	8f/J	.
=68	=68	=68
4.Bn\ 4.dn\	4g/)	.
.	([8ddn\	.
4.A-\ 4.c\ 4.d\	8dd\L]	.
.	8ee-\	.
.	8cc\J	.
4.G\ 4.B\ 4.d\	4dd\)	.
.	([8aa-\	mf
4.F\ 4.B\ 4.d\	8aa-\L]	.
.	8ff\	.
.	8dd\J	.
=69	=69	=69
*^	*	*
4.r	4E-\ 4c\	8gg\L	.
.	.	8ee-\	.
.	8F\ 8dn\	[8cc\J	.
4e-/	4.G\	8cc\L]	f
.	.	8ddn\	.
8d/	.	8bn\J	.
2.r	4c\	(8cc'\L)	.
.	.	8cc\	.
.	8E-\	8ee-\J	.
.	4F\	4dd\	.
.	8G\	8bbn\	.
*v	*v	*	*
=70	=70	=70
4c\	8ccc'\L)	.
.	(8c/	.
8E-\	8e-/J	.
4F\	4dn/	.
8G\	8bn\	.
4c\	8cc'\L)	.
.	(8cc\	.
8E-\	8ee-\J	.
4F\	4ddn\	.
8G\	8bbn\	.
=71	=71	=71
4c\	8ccc/L)	.
.	(8c/	.
8E-\	8e-/J	.
4F\	4dn/)	.
8G\	(8ddn\	.
4r	4a-/	.
8f\	[8ff/	.
4dn\	8ff/]	.
.	4dd/	.
8Bn\	.	.
=72	=72	=72
*^	*	*
4.r	4A-\	(8ddn\L)	.
.	.	8ee-\	.
.	8F\	[8cc\J	.
4c/ 4e-/	4.G\	8cc\L]	.
.	.	8dd\	.
8dn/	.	8bn\J	.
2.r	4c\	8cc/L	.
.	.	8c/)	p
.	(8E-\	8e-/J	.
.	4F\	4dn/	.
.	8G\	8b/	.
*v	*v	*	*
=73	=73	=73
4c\)	8cc'\L	.
.	8cc\	.
(8E-\	8ee-\J	.
4F\	4ddn\	.
8G\	8bbn\	.
4c\)	8ccc'\L	.
.	8c/	p
8E-\	8e-/J	.
4F\	4dn/	<
8G\	8dd\	.
=74	=74	=74
*^	*^	*
2.r	4r	2.a-\	4a-/	.
.	4dn\	.	[8ff/	.
.	.	.	8ff/]	.
.	8Bn\	.	[4ddn/	.
.	4A-\	.	.	.
(8f\	.	8dd\L]	2.r	.
4.r	8F\)	8ee-\	.	.
.	4.G\	[8cc\J	.	.
.	.	8cc\L]	.	.
4c/ (4e-/	.	8dd\	.	.
.	8d/	8bn\J	.	.
*v	*v	*	*	*
*	*v	*v	*
=75	=75	=75
*k[b-]	*k[b-]	*k[b-]
4c\)	4cc\	f
(8C/	[8ee\ [8gg\	.
4G\)	8ee\] 8gg\L]	.
.	8ff\ 8aa\	.
(8GG/	[8dd\ [8ff\J	.
4C/)	8dd\] 8ff\L]	.
.	8ee\ 8gg\	.
8CC'/	[8cc\ [8ee\J	.
(4G\	8cc\] 8ee\L]	.
.	8dd\ 8ff\	.
8GG/	8bn\ 8dd\J	.
=76	=76	=76
4.C/)	4cc\	.
.	[8ee\ [8gg\	p
(4.E\	8ee\] 8gg\L]	.
.	8ff\ 8aa\	.
.	[8dd\ [8ff\J	.
4.F\	8dd\] 8ff\L]	.
.	8ee\ 8gg\	.
.	[8cc\ [8ee\J	.
4.G\	8cc\] 8ee\L]	.
.	8dd\ 8ff\	.
.	8bn\ 8dd\J	.
=77	=77	=77
4.C/)	8cc\L	.
.	8dd\	.
.	8ee\J	.
(4.E\	8ee\L	.
.	8ff\	.
.	8gg\J	.
4.F\	8aa\L	.
.	8bbn\	.
.	8ccc\J	.
4.G\	4.dd\	f
=78	=78	=78
4.C/)	8c/L	p
.	8d/	.
.	8e/J	.
(4.E\	8e/L	.
.	8f/	.
.	8g/J	.
4.F\	8a/L	.
.	8bn/	.
.	8cc/J	.
4.G\	4.d/	mf
=79	=79	=79
*	*^	*
(8C\L)	4.r	4.c/	.
8D\	.	.	.
8E\J	.	.	.
8E\L	[4.cc/ [4.ee/	2.g\	.
8F\	.	.	.
8G\J	.	.	.
8A\L	4cc/] 4ee/]	.	.
8Bn\	.	.	.
8c\J)	[8dd\ [8ff\	.	.
4.GG/	4.r	8dd\] 8ff\L]	.
.	.	8cc\ 8ee\	.
.	.	8bn\ 8dd\J	.
=80	=80	=80	=80
8C\L	4.r	4.cc\ 4.ee\	.
8D\	.	.	.
8E\J	.	.	.
8E\L	[4.cc/ [4.ee/	[2.g\	.
8F\	.	.	.
8G\J	.	.	.
8A\L	4cc/] 4ee/]	.	.
8B-\	.	.	.
8cn\J	(8ff/	.	.
4.GG/	8ff/L	8g\L]	.
.	8ee/	8g\	.
.	8dd/J	8f\J	.
=81	=81	=81	=81
4.CC/ 4.C/	4.cc/)	4.e\	.
4r	4r	4.r	.
8r	8r	.	.
2.r	2.r	2.r	.
*	*v	*v	*
=82:|!|:	=82:|!|:	=82:|!|:
*>B	*>B	*>B
1.r	4r	.
.	8r	.
.	(8gg\L	f
.	8ff\	.
.	8ee\J	.
.	8dd\L	.
.	8ee\	.
.	8ff\J	.
.	8ee\L	.
.	8dd\	.
.	8cc\J	.
=83	=83	=83
2.r	8b-\L	.
.	8cc\	.
.	8dd\J)	.
.	(ccq/	.
.	(8b-/L)	.
.	8a/	.
.	8g#/J	.
4r	4a/)	.
8r	(8a/	.
8g\L	4.cc#\	f
8f\	.	.
8e\J	.	.
=84	=84	=84
8f\L	2.dd\)	.
8g\	.	.
8a\J	.	.
8f\L	.	.
8e\	.	.
8d\J	.	.
8c#\L	(8ee\L	.
8d\	8ff\	.
8e\J	8gg\J	.
8d\L	8ff\L	.
8cn\	8ee\	.
8B-\J	8dd\J	.
=85	=85	=85
8A\L	4cc#\)	.
8AA\	.	.
8A\J	[8aa\	.
8B-\L	4aa\]	.
8A\	.	.
8B-\J	(8dd\	.
8A\L	4cc#\)	.
8AA\	.	.
8A\J	[8aa\	.
8B-\L	4aa\]	.
8A\	.	.
8B-\J	(8dd\	.
=86	=86	=86
4.AA/	8cc#\L	.
.	8dd\	.
.	8ee\J)	.
(4.c#\	8r	.
.	(8a/L	f
.	8e/J	.
4.d\	8f/L	.
.	8d/	.
.	8a/J	.
4.Bn\	8g#/L	.
.	8e/	.
.	8g#/J)	.
=87	=87	=87
4.A\)	4g#/ 4dd/	.
.	8a/ 8cc#/	.
(4.c#\	8r	.
.	8a/L	p
.	8e/J	.
4.d\	8f/L	.
.	8d/	.
.	8a/J	.
4.Bn\	8g#/L	.
.	8e/	.
.	8g#/ 8dd/J	.
=88	=88	=88
4.A\)	4g#\ 4dd\	>
.	8a\ 8cc#\	.
(4.f\	8r	.
.	8dd\L	.
.	8a\J	.
4.g\	8b-\L	.
.	8gn\	.
.	8dd\J	.
4.c#\	8ee\L	.
.	8a\	.
.	8b-\ 8gg\J	.
=89	=89	=89
4.d\)	4b-\ 4gg\	>
.	8a\ 8ff\	.
(4.f\	8r	.
.	8dd\L	p
.	8a\J	.
4.g\	8b-\L	.
.	8g\	.
.	8dd\J	.
4.c#\	8ee\L	.
.	8a\	.
.	8b-\ 8gg\J	.
=90	=90	=90
4.d\)	4b-\ 4gg\	>
.	8a\ 8ff#\	.
*clefG2	*	*
(4.b-'\	8r	.
.	8gg\L	f
.	8dd\J	.
4.cc\	8ee-\L	.
.	8cc\	.
.	8gg\J	.
4.f#/	8aa\L	.
.	8dd\	.
.	8ee-\ 8ccc\J	.
=91	=91	=91
4.g/)	4ee-\ 4ccc\	>
.	8dd\ 8bb-\	.
(4.b-\	8r	.
.	8gg\L	p
.	8dd\J	.
4.cc\	8ee-\L	.
.	8cc\	.
.	8gg\J	.
4.f#/	8aa\L	.
.	8dd\	.
.	8ccc\J	.
=92	=92	=92
4.g/)	8ccc\L	f
.	8bb-\	.
.	8aa\J	.
(4.b-/	8aa\L	.
.	8gg\	.
.	8ff\J	.
4.c/	8ff\L	.
.	8ee-\	.
.	8dd\J	.
4.e-/	8dd\L	.
.	8cc\	.
.	8b-\J	.
*clefF4	*	*
=93	=93	=93
4.F\)	8b-/L	.
.	8a/	.
.	8g/J	.
(4.A\	8g/L	.
.	8f/	.
.	8e-/J	.
4.B-\	8d/L	.
.	8e-/	.
.	8f/J	.
4.A\	8g/L	.
.	8f/	.
.	8e-/J	.
=94	=94	=94
*k[b-e-a-d-]	*k[b-e-a-d-]	*k[b-e-a-d-]
*M2/2	*M2/2	*M2/2
*MM216	*MM216	*MM216
2B-\)	4e-/	>
.	4dn/	.
(4An/	8f\L	p
.	8an\	.
4F\)	8cc\	.
.	8ee-\J	.
=95	=95	=95
*^	*	*
2r	2B-\	(4ee-\	>
.	.	4ddn\)	.
2c/	(4An\	(8f\L	.
.	.	8an\	.
.	4F\)	8cc\	.
.	.	8ee-\J)	.
*v	*v	*	*
=96	=96	=96
2B-\	(4ee-\	>
.	4ddn\)	.
4Dn\ 4B-\	(8b-\L	<
.	8dd\	.
4D\ 4B-\	8ff\	.
.	8aa-\J)	.
=97	=97	=97
4E-\ 4B-\	(4aa-\	>
4E-\ 4B-\	4gg\)	.
4Dn\ 4B-\	(8b-\L	<
.	8ddn\	.
4D\ 4B-\	8ff\	.
.	8aa-\J)	.
=98	=98	=98
*^	*	*
2B-/	4E-\	(8aa-\L	mf
.	.	8gg\)	.
.	(4F\	(8gg\	.
.	.	8ff\J)	.
2r	4G\	(8ff\L	.
.	.	(8ee-\)	.
.	4E-\	8ee-\	.
.	.	8ddn\J)	.
*v	*v	*	*
=99	=99	=99
4A-\	8ddn\L	.
.	8cc\	.
4B-\	8cc\	.
.	8b-\J	.
4c\	8b-/L	.
.	8a-/	.
4dn\	8g/	.
.	8f/J	.
=100	=100	=100
*^	*	*
.	.	fq/	.
2e-\)	2r	2g/	>
(4G\	2B-/	8e-/L	p
.	.	8g/	.
4E-\)	.	8b-/	.
.	.	8dd-/J	.
*v	*v	*	*
=101	=101	=101
2A-\	(4dd-\	>
.	4cc\)	.
(4G\	(8e-/L	.
.	8g/	.
4E-\)	8b-/	.
.	8dd-/J)	.
=102	=102	=102
2.A-\	(4dd-\	>
.	4cc\)	.
.	(8ee-\L	.
.	8b-\)	.
4G-\ (4B-\	(8b-\	.
.	8an\J)	.
=103	=103	=103
4F\ 4An\	8an\L	.
.	8b-\	.
4Gn\ 4B-\	8b-\	.
.	8cc\J	.
4A\ 4c\)	8cc'\L	.
.	8cc\	.
4F'\ 4A'\	8dd-\	.
.	8ee-\J	.
=104	=104	=104
*^	*	*
.	.	(ee-q/	.
2r	2B-\	(4dd-\)	.
.	.	8cc\L	.
.	.	8b-\J)	.
2c/	(4An\	(8f/L	p
.	.	8an/	.
.	4F\)	8cc/	.
.	.	8ee-/J)	.
=105	=105	=105	=105
2r	2B-\	(4ee-\	>
.	.	4dd-\)	.
2c/	(4An\	(8f/L	.
.	.	8an/	.
.	4F\)	8cc/	.
.	.	8ee-/J)	.
*v	*v	*	*
=106	=106	=106
2.B-\	(4ee-\	>
.	4dd-\)	.
.	(8ff\L	.
.	8cc\)	.
4A-\ (4c\	(8cc\	.
.	8bn\J)	.
=107	=107	=107
4G\ 4Bn\	8bn\L	.
.	8cc\	.
4An\ 4c\	8cc\	.
.	8ddn\J	.
4B\ 4dn\)	8dd'\L	.
.	8dd\	.
4G'\ 4B'\	8ee-\	.
.	8ff\J	.
=108	=108	=108
*^	*	*
.	.	(ffq/	.
2r	2c\	(4ee-\)	>
.	.	8ddn\L	.
.	.	8cc\J)	p
2dn/	(4Bn\	(8g\L	.
.	.	8bn\	.
.	4G\)	8dd\	.
.	.	8ff\J)	.
=109	=109	=109	=109
2r	2c\	(4ff\	>
.	.	4ee-\)	.
2dn/	(4Bn\	(8g\L	.
.	.	8bn\	.
.	4G\)	8ddn\	.
.	.	8ff\J)	.
*v	*v	*	*
=110	=110	=110
2c\	(4ff\	>
.	4een\)	.
(4En\	(8gg\L	mf
.	8ee\	.
4c\)	8cc\	.
.	8b-\J)	.
=111	=111	=111
(4F\	(4b-/	>
4c\)	4a-/)	.
(4BB-/	(8dd-/L	.
.	8b-/	.
4B-\)	8g/	.
.	8f/J)	.
=112	=112	=112
(4C/	(4f/	>
4c\)	4en/)	.
(4En\	(8gg\L	.
.	8een\	.
4c\)	8cc\	.
.	8b-\J)	.
=113	=113	=113
4F\	(4b-/	>
4c\	4a-/)	.
4BB-/	(8dd-/L	.
.	8b-/	.
4B-\	8g/	.
.	8f/J	.
=114	=114	=114
*M12/8	*M12/8	*M12/8
*MM190	*MM190	*MM190
4.C/	4en/)	mf
.	(8ccc\	.
4r	8bb-\L	.
.	8aa-\	.
8r	8gg\J	.
2.r	8aa-\L	.
.	8bb-\	.
.	8ccc\J	.
.	8bb-\L	.
.	8aa-\	.
.	8gg\J	.
=115	=115	=115
1.r	8ff\L	.
.	8gg\	.
.	8aa-\J	.
.	8gg\L	.
.	8ff\	.
.	8ee-\J	.
.	8dd-\L	.
.	8ee-\	.
.	8ff\J	.
.	8dd-\L	.
.	8cc\	.
.	8bn\J	.
*clefG2	*	*
=116	=116	=116
4r	4.cc\)	<
8cc\	.	.
8b-\L	(4.een\	f
8a-\	.	.
8g\J	.	.
8a-\L	2.ff\)	.
8b-\	.	.
8cc\J	.	.
8a-/L	.	.
8g/	.	.
8f/J	.	.
=117	=117	=117
8en/L	(8gg\L	.
8f/	8aa-\	.
8g/J	8bb-\J	.
8f/L	8aa-\L	.
8e-/	8gg\	.
8d-/J	8ff\J	.
*clefF4	*	*
8c\L	4ccc\)	.
8C\	.	.
8c\J	(8een\	.
8d-\L	8ff\L	.
8c\	8ee\	.
8d-\J	8ff\J	.
=118	=118	=118
(8c\L	4gg\)	.
8C\	.	.
8c\J	(8een\	.
8d-\L	8ff\L	.
8c\	8ee\	.
8d-\J	8ff\J	.
(8c\L)	4gg\)	.
8C\	.	.
8c\J	(8ee\	.
8d-\L	8ff\L	.
8c\	8ee\	.
8d-\J)	8ff\J)	.
=119	=119	=119
.	(ffq/	.
4.C/	4.gg\)	.
(4.en\	8r	.
.	(8cc/L	mf
.	8g/J	.
4.f\	8a-/L	.
.	8f/	.
.	8cc/J	.
4.dn\	8bn\L	.
.	8g\	.
.	8b\ 8ff\J)	.
=120	=120	=120
4.c\)	4bn\ 4ff\	>
.	8cc\ 8een\	p
(4.en\	8r	.
.	8cc/L	.
.	8g/J	.
4.f\	8a-/L	.
.	8f/	.
.	8cc/J	.
4.dn\	8b\L	.
.	8g\	.
.	8b\ 8ff\J	.
=121	=121	=121
4.c\)	4bn\ 4ff\	>
.	8cc\ 8een\	.
*clefG2	*	*
(4.a-/	8r	.
.	8ff\L	f
.	8cc\J	.
4.b-/	8dd-\L	.
.	8b-\	.
.	8ff\J	.
4.g/	8ee\L	.
.	8cc\	.
.	8ee\ 8bb-\J	.
=122	=122	=122
4.f/)	4een\ 4bb-\	>
.	8ff\ 8aa-\	p
(4.a-/	8r	.
.	8ff\L	.
.	8cc\J	.
4.b-/	8dd-\L	.
.	8b-\	.
.	8ff\J	.
4.g/	8ee\L	.
.	8cc\	.
.	8bb-\J	.
=123	=123	=123
4.f/)	8bb-\L	mf
.	8aa-\	.
.	8gg\J	.
*clefF4	*	*
(4.a-\	8gg\L	.
.	8ff\	.
.	8ee-\J	.
4.B-\	8ee-\L	.
.	8dd-\	.
.	8cc\J	.
4.c\	8b-/L	.
.	8a-/	.
.	8g/J	.
=124	=124	=124
4.F\)	4f/	.
.	[8cc\	.
*clefG2	*	*
(4.f/ 4.a-/	8cc\L]	.
.	8dd-\	.
.	8b-\J	.
4.e-/) 4.g/	4cc\	.
.	[8gg\	.
(4.d-/ 4.f/ 4.g/	8gg\L]	.
.	8aa-\	.
.	8ff\J	.
=125	=125	=125
4.c/) 4.en/ 4.g/	4gg\	.
.	[8cc\	.
(4.f/ 4.a-/	8cc\L]	.
.	8dd-\	.
.	8b-\J	.
4.e/) 4.g/	4cc\	.
.	[8gg\	.
(4.d-/ 4.f/ 4.g/	8gg\L]	.
.	8aa-\	.
.	8ff\J	.
=126	=126	=126
*^	*	*
4.c/) 4.en/ 4.g/	2.r	4gg\	.
.	.	[8ddd-\	f
4.B-/ 4.e/ 4.g/	.	8ddd-\L]	.
.	.	8bb-\	.
.	.	8gg\J	.
4A-/ 4f/	4.r	8ccc\L	.
.	.	8aa-\	.
8B-/ (8g/	.	[8ff\J	.
4a-/	4.c\	8ff\L]	.
.	.	8gg\	.
8g/	.	8een\J	.
*v	*v	*	*
*clefF4	*	*
=127	=127	=127
4.F\ 4.f\)	4ff\	.
.	[8cc\	p
*clefG2	*	*
(4.f/ 4.a-/	8cc\L]	.
.	8dd-\	.
.	8b-\J	.
4.en/) 4.g/	4cc\	.
.	[8gg\	.
(4.d-/ 4.f/ 4.g/	8gg\L]	.
.	8aa-\	.
.	8ff\J	.
=128	=128	=128
4.c/) 4.en/ 4.g/	4gg\	.
.	[8cc\	.
(4.f/ 4.a-/	8cc\L]	.
.	8dd-\	.
.	8b-\J	.
4.e/) 4.g/	4cc\	.
.	[8gg\	.
(4.d-/ 4.f/ 4.g/	8gg\L]	.
.	8aa-\	.
.	8ff\J	.
=129	=129	=129
*^	*	*
4.c/) 4.en/ 4.g/	2.r	4gg\	.
.	.	[8ddd-\	f
(4.B-/ 4.e/ 4.g/	.	8ddd-\L]	.
.	.	8bb-\	.
.	.	8gg\J	.
4A-/) 4f/	4.r	8ccc\L	.
.	.	8aa-\	.
8B-/ 8g/	.	[8ff\J	.
4a-/	4.c\	8ff\L]	.
.	.	8gg\	.
8g/	.	8een\J	.
*v	*v	*	*
*clefF4	*	*
=130	=130	=130
*^	*	*
2.F\ 2.f\	2.r	4.ff\	.
.	.	(8ccc\L	mf
.	.	8aa-\	.
.	.	8ff\J)	.
.	.	(ggq/	.
*v	*v	*	*
*clefG2	*	*
*^	*	*
(2.c\	4.c/	(8ff\L)	.
.	.	8een\)	.
.	.	8ee'\J	.
.	[4.cc'/	8gg'\L	.
.	.	8gg'\	.
.	.	8gg'\J	.
=131	=131	=131	=131
*	*	*^	*
4.cc/]	2.d-\	2.aa-/	8gg\L	.
.	.	.	8ff\	.
.	.	.	8ff'\J	.
4.b-/	.	.	8ff'\L	.
.	.	.	8ff'\	.
.	.	.	8ff'\J	.
4.a-/	2.c\	4.gg/	8ff\L	.
.	.	.	8een\	.
.	.	.	8ee\J	.
[4.cc/	.	4.r	8gg\L	.
.	.	.	8gg\	.
.	.	.	8gg'\J	.
=132	=132	=132	=132	=132
4.cc/]	2.d-\	2.aa-/	8gg\L	.
.	.	.	8ff\	.
.	.	.	8ff'\J	.
4.b-/	.	.	8ff'\L	.
.	.	.	8ff'\	.
.	.	.	8ff'\J	.
4.cc/	4.c\)	4.gg/	8ff\L	.
.	.	.	8ee-\	.
.	.	.	8ee-\J	.
4.b-/	4.r	4.ff/	8ee-\L	.
.	.	.	8dd-\	.
.	.	.	8dd-'\J	.
*v	*v	*	*	*
=133	=133	=133	=133
4.a-/	(4.ee-/	8dd-\L	.
.	.	8cc\)	.
.	.	8cc'\J	.
4.g/	(4.dd-/	8cc\L	.
.	.	8b-\)	.
.	.	8b-'\J	.
4.f/	(4.cc/	8b-\L	.
.	.	8a-\)	.
.	.	(8b-\J	.
*clefF4	*	*	*
(4.F\	4.r	8cc/L	p
.	.	8a-/	.
.	.	8f/J)	.
=134	=134	=134	=134
*^	*	*	*
.	.	2.r	gq/	.
*	*	*v	*v	*
(4.C/	2.C\)	8f/L	.
*	*	*^	*
.	.	.	8en/	.
.	.	.	8e'/J	.
[4.c/	.	.	8g'/L	.
.	.	.	8g'/	.
.	.	.	8g'/J	.
4.c/]	2.D-\	8g\L	2.a-/	.
.	.	8f\	.	.
.	.	8f'\J	.	.
4.B-/	.	8f'\L	.	.
.	.	8f'\	.	.
.	.	8f'\J	.	.
=135	=135	=135	=135	=135
4.A-/	2.C\	4.g/	8f\L	.
.	.	.	8en\	.
.	.	.	8e'\J	.
[4.c/	.	4.r	8g\L	.
.	.	.	8g\	.
.	.	.	8g'\J	.
4.c/]	2.D-\)	2.a-/	8g\L	.
.	.	.	8f\	.
.	.	.	8f'\J	.
4.B-/	.	.	8f\L	.
.	.	.	8f\	.
.	.	.	8f'\J	.
*v	*v	*	*	*
=136	=136	=136	=136
(4.C/	(2.g/	8f\L	.
.	.	8e-\)	.
.	.	8e-'\J	.
4.c\	.	8e-'\L	.
.	.	8e-\	.
.	.	8e-'\J	.
4.F\)	4.an/	8e-'\L	.
.	.	8e-\	.
.	.	8e-'\J	.
(4.BB-\ 4.B-\	4.b-/	8d-'\L	.
.	.	8d-\	.
.	.	8d-'\J	.
=137	=137	=137	=137
4.C\) 4.c\	4.b-/	8en'\L	.
.	.	8e'\	.
.	.	8e'\J	.
(4.F\ 4.c\	8a-/L	4.f\	.
.	8a-/	.	.
.	8a-'/J	.	.
4.G\)	8bn'/L	4.f\	.
.	8b/	.	.
.	8b'/J	.	.
4.C\ ([4.c\	4.cc/	8en\L	.
.	.	8e'\	.
.	.	8e'\J	.
=138	=138	=138	=138
*^	*	*	*
4.c/]	2.D-\	4.cc/	8f'\L	.
.	.	.	8f'\	.
.	.	.	8f'\J	.
4.B-/	.	8ff'/L	4.b-\	f
.	.	8ff'/	.	.
.	.	8ff'/J	.	.
2.r	4.C\ 4.c\)	8een'/L	4.b-\	.
.	.	8ee'/	.	.
.	.	8ee'/J	.	.
.	(4.F\	8ff'/L	4.a-\	.
.	.	8ff'/	.	.
.	.	8ff'/J	.	.
*v	*v	*	*	*
*	*v	*v	*
=139	=139	=139
.	ee-q/	.
4.B-\	8dd-\L	.
.	8cc\	.
.	8b-\J	.
4.c\)	8b-/L	.
.	8a-/	.
.	8g/J	.
(4.FF/	8f/L	.
.	8a-/	p
.	8b-/J	.
4.F\)	8cc/L	.
.	8a-/	.
.	8f/J	.
=140	=140	=140
*^	*^	*
.	.	2.r	(gq/	.
*	*	*v	*v	*
(4.C/	2.C\	(8f/L)	.
*	*	*^	*
.	.	.	8en/)	.
.	.	.	8e'/J	.
[4.c/	.	.	8g'/L	.
.	.	.	8g'/	.
.	.	.	8g'/J	.
4.c/]	2.D-\	8g\L	(2.a-/	.
.	.	8f\)	.	.
.	.	8f'\J	.	.
4.B-/	.	8f'\L	.	.
.	.	8f'\	.	.
.	.	8f'\J	.	.
=141	=141	=141	=141	=141
4.A-/)	2.C\	4.g/	8f\L	.
.	.	.	8en\	.
.	.	.	8e\J	.
([4.c/	.	4.r	8g\L	.
.	.	.	8g'\	.
.	.	.	8g'\J	.
4.c/]	2.D-\	2.a-/	8g\L	.
.	.	.	8f\	.
.	.	.	8f'\J	.
4.B-/)	.	.	8f\L	.
.	.	.	8f'\	.
.	.	.	8f'\J	.
*v	*v	*	*	*
=142	=142	=142	=142
(4.C/	(2.g/	8f\L	.
.	.	8e-\)	.
.	.	8e-\J	.
4.c\	.	8e-'\L	.
.	.	8e-'\	.
.	.	8e-'\J	.
4.F\)	4.an/	8e-'\L	.
.	.	8e-'\	.
.	.	8e-'\J	.
4.BB-\ (4.B-\	4.b-/	8d-'\L	.
.	.	8d-'\	.
.	.	8d-'\J	.
=143	=143	=143	=143
4.C\ 4.c\)	4.b-/	8en'\L	.
.	.	8e'\	.
.	.	8e'\J	.
(4.F\	8a-'/L	4.f\	<
.	8a-/	.	.
.	8a-'/J	.	.
4.G\)	8bn'/L	4.f\	.
.	8b/	.	.
.	8b'/J	.	.
4.C\ (4.c\	4.cc/	8e'\L	.
.	.	8e'\	.
.	.	8e'\J	.
=144	=144	=144	=144
*^	*	*	*
4.c/	2.D-\	4.cc/	8f\L	.
.	.	.	8f'\	.
.	.	.	8f'\J	.
4.B-/	.	8ff'/L	4.b-\	f
.	.	8ff'/	.	.
.	.	8ff'/J	.	.
2.r	4.C\ 4.c\)	8een'/L	4.b-\	.
.	.	8ee/	.	.
.	.	8ee'/J	.	.
.	(4.F\	8ff'/L	4.a-\	.
.	.	8ff'/	.	.
.	.	8ff'/J	.	.
*v	*v	*	*	*
*	*v	*v	*
=145	=145	=145
.	ee-q/	.
4.B-\	8dd-\L	.
.	8cc\	.
.	8b-\J	.
4.c\)	8b-/L	.
.	8a-/	.
.	8g/J	.
4.F\ 4.A-\ 4.c\	8f/L	.
.	8f/	p
.	8a-/J	.
(4.C\ 4.G\ 4.c\	4g/	.
.	8een\	.
=146	=146	=146
4.F\) 4.A-\ 4.c\	8ff/L	.
.	8f/	.
.	8a-/J	.
(4.C\ 4.G\ 4.c\	4g/	.
.	8een\ 8gg\	.
4.F\) 4.A-\ 4.c\	8ff\ 8aa-\L	.
.	8f/	.
.	8a-/J	.
(4.C\ 4.G\ 4.c\	4g/	.
.	8gg\ 8bb-\	.
=147	=147	=147
4.F\) 4.A-\ 4.c\	8aa-\ 8ccc\L	f
.	8een\	.
.	8gg\J	.
(4.A-\	8ff\L	.
.	8cc\	.
.	8ee-\J	.
4.B-\	8ee-\L	.
.	8dd-\	.
.	8cc\J	.
4.c\)	8b-/L	.
.	8a-/	.
.	8g/J	.
=148	=148	=148
4.F\ 4.A-\ 4.c\	8f/L	.
.	(8f/	p
.	8a-/J	.
4.C\ 4.G\ 4.c\	4g/)	.
.	(8een\	.
4.F\ 4.A-\ 4.c\	8ff\L)	.
.	(8f/	.
.	8a-/J	.
4.C\ 4.G\ 4.c\	4g/)	.
.	8ee\ (8gg\	.
=149	=149	=149
4.F\ 4.A-\ 4.c\	8ff\ 8aa-\L	.
.	(8f/)	.
.	8a-/J	.
(4.C\ 4.G\ 4.c\	4g/)	.
.	8gg\ (8bb-\	.
4.F\) 4.A-\ 4.c\	8aa-\ 8ccc\L)	.
.	(8een\	.
.	8gg\J	.
(4.AA-\ 4.A-\	8ff\L	.
.	8cc\	.
.	8ee-\J)	.
=150	=150	=150
4.BB-/	8ee-\L	.
.	8dd-\	.
.	8cc\J	.
4.C/)	8b-/L	.
.	8a-/	.
.	8g/J	.
=	=	=
*k[b-]	*k[b-]	*k[b-]
4.F\ 4.c\	4f/	.
.	[8aa\ ([8ccc\	f
4.C\ 4.c\	8aa\] 8ccc\L]	.
.	8bb-\ 8ddd\)	.
.	[8gg\ ([8bb-\J	.
=151	=151	=151
4.F\ 4.c\	8gg\] 8bb-\L]	.
.	8aa\ 8ccc\)	.
.	[8ff\ ([8aa\J	.
4.C\ 4.c\	8ff\] 8aa\L]	.
.	8gg\ 8bb-\)	.
.	8ee\ (8gg\J	.
4.F\ 4.c\	4ff\)	.
.	[8a\ ([8cc\	p
4.C\ 4.c\	8a\] 8cc\L]	.
.	8b-\ 8dd\)	.
.	[8g\ ([8b-\J	.
=152	=152	=152
4.F\ 4.c\	8g/] 8b-/L]	.
.	8a/ 8cc/)	.
.	([8f/ [8a/J	.
4.C\ 4.c\	8f/] 8a/L]	.
.	8g/) 8b-/	.
.	8e/ (8g/J	.
4.F\	8f/L	.
.	8g/	.
.	8a/J	.
4.AA/	8a/L	.
.	8b-/	.
.	8cc/J	.
=153	=153	=153
4.BB-/	8dd\L	.
.	8ee\	.
.	8ff\J)	.
4.C/	(4.g/	f
8F\L	4.f/)	>
8G\	.	.
8A\J	.	.
8A\L	(8f/L	.
8B-\	8g/	.
8c\J	8a/J	.
=154	=154	=154
8d\L	8b-\L	.
8e\	8cc\	.
8f\J	8dd\J)	.
4.CC/	(8dd\L	f
.	8cc\	.
.	8b-\J	.
8F\L	8a/L	.
8G\	8g/	.
8A\J	8f/J)	.
8A\L	(8f/L	p
8B-\	8g/	.
8c\J	8a/J	.
=155	=155	=155
8d\L	8b-\L	.
8e\	8cc\	.
8f\J	8dd\J)	.
4.CC/	(8dd\L	f
.	8cc\	>
.	8b-\J	.
4.FF/	8a\L	.
.	8b-\	.
.	8cc\J)	.
4.AA/	(8f/L	p
.	8g/	.
.	8a/J	.
=156	=156	=156
4.BB-/	8d/L)	.
.	(8b-/ 8dd/	.
.	8a/ 8cc/J	.
4.C/	8g/ 8b-/L	.
.	8f/ 8a/	.
.	8g/ 8b-/J	.
4.FF/	8a/L)	.
.	(8b-/	.
.	8cc/J	.
4.AA/	8f/L	.
.	8g/	.
.	8a/J	.
=157	=157	=157
4.BB-/	8d/L)	.
.	(8d/ 8b-/	f
.	8c/ 8a/J	.
(4.C/	8B-/ 8g/L	.
.	8A/ 8f/	.
.	8G/) 8e/J	.
.	(Gq/	.
4.FF/)	4.F/) 4.f/	.
4r	4r	.
8r	8r	.
==:|!	==:|!	==:|!
*-	*-	*-
!!!ENC: Craig Stuart Sapp
!!!END: 2005/08/12
